TGeo/prim2_tubeseg_z.svg

<svg viewBox="-600 -400 1200 800" width="1200" height="800" xmlns="http://www.w3.org/2000/svg"><path style="fill:rgb(169,0,169)" d="M-9,-351l2,452h14Z"/><path style="fill:rgb(168,0,168)" d="M9,-351l-2,452l14,1ZM-26,-350l5,452l14,-1Z"/><path style="fill:rgb(165,0,165)" d="M26,-350l-5,452l13,2Z"/><path style="fill:rgb(166,0,166)" d="M-42,-348l8,452l13,-2Z"/><path style="fill:rgb(161,0,161)" d="M42,-348l-8,452l13,3Z"/><path style="fill:rgb(162,0,162)" d="M-59,-345l12,452l13,-3Z"/><path style="fill:rgb(155,0,155)" d="M59,-345l-12,452l13,4Z"/><path style="fill:rgb(157,0,157)" d="M-75,-341l15,452l13,-4Z"/><path style="fill:rgb(148,0,148)" d="M75,-341l-15,452l12,5Z"/><path style="fill:rgb(150,0,150)" d="M-90,-336l18,452l12,-5Z"/><path style="fill:rgb(140,0,140)" d="M90,-336l-18,452l11,6Z"/><path style="fill:rgb(142,0,142)" d="M-105,-330l22,452l11,-6Z"/><path style="fill:rgb(130,0,130)" d="M105,-330l-22,452l11,7Z"/><path style="fill:rgb(133,0,133)" d="M-118,-324l24,453l11,-7Z"/><path style="fill:rgb(119,0,119)" d="M118,-324l-24,453l10,8Z"/><path style="fill:rgb(122,0,122)" d="M-130,-317l26,454l10,-8Z"/><path style="fill:rgb(106,0,106)" d="M130,-317l-26,454l9,8Z"/><path style="fill:rgb(110,0,110)" d="M-142,-309l29,454l9,-8Z"/><path style="fill:rgb(93,0,93)" d="M142,-309l-29,454l7,9Z"/><path style="fill:rgb(97,0,97)" d="M-151,-300l31,454l7,-9Z"/><path style="fill:rgb(79,0,79)" d="M151,-300l-31,454l7,10Z"/><path style="fill:rgb(83,0,83)" d="M-160,-291l33,455l7,-10Z"/><path style="fill:rgb(154,0,154)" d="M132,174l64,-13l51,-455Z"/><path style="fill:rgb(64,0,64)" d="M160,-291l-33,455l5,10Z"/><path style="fill:rgb(68,0,68)" d="M-166,-281l34,455l5,-10Z"/><path style="fill:rgb(53,0,53)" d="M-171,-271l35,456l4,-11Z"/><path style="fill:rgb(37,0,37)" d="M-174,-260l36,456l2,-11Z"/><path style="fill:rgb(20,0,20)" d="M-176,-250l37,457l1,-11Z"/><path style="fill:rgb(4,0,4)" d="M-175,-239l37,457l-1,-11Z"/><path style="fill:rgb(181,0,181)" d="M-9,-351l16,452l2,-452Z"/><path style="fill:rgb(180,0,180)" d="M-26,-350l19,451l-2,-452ZM9,-351l12,453l5,-452Z"/><path style="fill:rgb(178,0,178)" d="M-42,-348l21,450l-5,-452Z"/><path style="fill:rgb(177,0,177)" d="M26,-350l8,454l8,-452Z"/><path style="fill:rgb(174,0,174)" d="M-59,-345l25,449l-8,-452Z"/><path style="fill:rgb(0,0,0)" d="M-264,-231l56,458l3,17Z"/><path style="fill:rgb(173,0,173)" d="M42,-348l5,455l12,-452Z"/><path style="fill:rgb(168,0,168)" d="M-75,-341l28,448l-12,-452Z"/><path style="fill:rgb(167,0,167)" d="M59,-345l1,456l15,-452Z"/><path style="fill:rgb(161,0,161)" d="M-90,-336l30,447l-15,-452Z"/><path style="fill:rgb(159,0,159)" d="M75,-341l-3,457l18,-452Z"/><path style="fill:rgb(152,0,152)" d="M-105,-330l33,446l-18,-452Z"/><path style="fill:rgb(150,0,150)" d="M90,-336l-7,458l22,-452Z"/><path style="fill:rgb(3,0,3)" d="M-261,-214l56,458l5,16Z"/><path style="fill:rgb(142,0,142)" d="M-118,-324l35,446l-22,-452Z"/><path style="fill:rgb(139,0,139)" d="M105,-330l-11,459l24,-453Z"/><path style="fill:rgb(131,0,131)" d="M-130,-317l36,446l-24,-453Z"/><path style="fill:rgb(128,0,128)" d="M118,-324l-14,461l26,-454Z"/><path style="fill:rgb(19,0,19)" d="M-255,-198l55,458l8,17Z"/><path style="fill:rgb(118,0,118)" d="M-142,-309l38,446l-26,-454Z"/><path style="fill:rgb(114,0,114)" d="M130,-317l-17,462l29,-454Z"/><path style="fill:rgb(104,0,104)" d="M-151,-300l38,445l-29,-454Z"/><path style="fill:rgb(35,0,35)" d="M-246,-182l54,459l10,15Z"/><path style="fill:rgb(100,0,100)" d="M142,-309l-22,463l31,-454Z"/><path style="fill:rgb(89,0,89)" d="M-160,-291l40,445l-31,-454Z"/><path style="fill:rgb(85,0,85)" d="M151,-300l-24,464l33,-455Z"/><path style="fill:rgb(51,0,51)" d="M-234,-167l52,459l12,15Z"/><path style="fill:rgb(73,0,73)" d="M-166,-281l39,445l-33,-455Z"/><path style="fill:rgb(166,0,166)" d="M132,174l115,-468l-81,13Z"/><path style="fill:rgb(69,0,69)" d="M160,-291l-28,465l34,-455Z"/><path style="fill:rgb(136,0,136)" d="M9,-351l3,-43h-24ZM-9,-351l-3,-43l-25,2Z"/><path style="fill:rgb(66,0,66)" d="M-219,-152l49,459l14,14Z"/><path style="fill:rgb(136,0,136)" d="M26,-350l11,-42l-25,-2ZM-26,-350l-11,-42l-25,2Z"/><path style="fill:rgb(137,0,137)" d="M42,-348l20,-42l-25,-2Z"/><path style="fill:rgb(57,0,57)" d="M-171,-271l39,445l-34,-455Z"/><path style="fill:rgb(137,0,137)" d="M-42,-348l-20,-42l-24,5ZM59,-345l27,-40l-24,-5ZM-59,-345l-27,-40l-23,5Z"/><path style="fill:rgb(138,0,138)" d="M75,-341l34,-39l-23,-5Z"/><path style="fill:rgb(81,0,81)" d="M-201,-138l45,459l16,13Z"/><path style="fill:rgb(40,0,40)" d="M-174,-260l38,445l-35,-456Z"/><path style="fill:rgb(138,0,138)" d="M9,-351l-21,-43l3,43Z"/><path style="fill:rgb(137,0,137)" d="M-75,-341l-34,-39l-23,7Z"/><path style="fill:rgb(138,0,138)" d="M26,-350l-14,-44l-3,43Z"/><path style="fill:rgb(109,0,109)" d="M180,-125l-40,459l16,-13Z"/><path style="fill:rgb(138,0,138)" d="M-9,-351l-28,-41l11,42ZM42,-348l-5,-44l-11,42ZM90,-336l42,-37l-23,-7ZM-26,-350l-36,-40l20,42ZM59,-345l3,-45l-20,42Z"/><path style="fill:rgb(94,0,94)" d="M-180,-125l40,459l18,11Z"/><path style="fill:rgb(138,0,138)" d="M-42,-348l-44,-37l27,40ZM-90,-336l-42,-37l-21,8Z"/><path style="fill:rgb(22,0,22)" d="M-176,-250l38,446l-36,-456Z"/><path style="fill:rgb(139,0,139)" d="M75,-341l11,-44l-27,40ZM105,-330l48,-35l-21,-8Z"/><path style="fill:rgb(119,0,119)" d="M157,-114l-35,459l18,-11Z"/><path style="fill:rgb(138,0,138)" d="M-59,-345l-50,-35l34,39Z"/><path style="fill:rgb(139,0,139)" d="M90,-336l19,-44l-34,39Z"/><path style="fill:rgb(106,0,106)" d="M-157,-114l35,459l20,10Z"/><path style="fill:rgb(139,0,139)" d="M-105,-330l-48,-35l-20,9ZM-75,-341l-57,-32l42,37Z"/><path style="fill:rgb(140,0,140)" d="M118,-324l55,-32l-20,-9Z"/><path style="fill:rgb(127,0,127)" d="M132,-104l-30,459l20,-10Z"/><path style="fill:rgb(4,0,4)" d="M-175,-239l36,446l-37,-457Z"/><path style="fill:rgb(140,0,140)" d="M105,-330l27,-43l-42,37Z"/><path style="fill:rgb(116,0,116)" d="M-132,-104l30,459l21,8Z"/><path style="fill:rgb(139,0,139)" d="M-90,-336l-63,-29l48,35Z"/><path style="fill:rgb(134,0,134)" d="M105,-96l-24,459l21,-8Z"/><path style="fill:rgb(139,0,139)" d="M-118,-324l-55,-32l-19,10Z"/><path style="fill:rgb(141,0,141)" d="M118,-324l35,-41l-48,35ZM130,-317l62,-29l-19,-10Z"/><path style="fill:rgb(125,0,125)" d="M-105,-96l24,459l23,6Z"/><path style="fill:rgb(139,0,139)" d="M76,-90l-18,459l23,-6Z"/><path style="fill:rgb(140,0,140)" d="M-105,-330l-68,-26l55,32Z"/><path style="fill:rgb(132,0,132)" d="M-76,-90l18,459l23,4Z"/><path style="fill:rgb(141,0,141)" d="M46,-86l-11,459l23,-4Z"/><path style="fill:rgb(138,0,138)" d="M-46,-86l11,459l23,2Z"/><path style="fill:rgb(141,0,141)" d="M130,-317l43,-39l-55,32Z"/><path style="fill:rgb(140,0,140)" d="M-130,-317l-62,-29l-17,12Z"/><path style="fill:rgb(142,0,142)" d="M15,-84l-3,459l23,-2Z"/><path style="fill:rgb(141,0,141)" d="M-15,-84l3,459h24Z"/><path style="fill:rgb(142,0,142)" d="M142,-309l67,-25l-17,-12Z"/><path style="fill:rgb(141,0,141)" d="M-118,-324l-74,-22l62,29Z"/><path style="fill:rgb(0,0,0)" d="M-264,-231l59,475l-56,-458Z"/><path style="fill:rgb(142,0,142)" d="M142,-309l50,-37l-62,29Z"/><path style="fill:rgb(141,0,141)" d="M-142,-309l-67,-25l-15,12Z"/><path style="fill:rgb(142,0,142)" d="M-130,-317l-79,-17l67,25Z"/><path style="fill:rgb(143,0,143)" d="M151,-300l73,-22l-15,-12ZM151,-300l58,-34l-67,25Z"/><path style="fill:rgb(3,0,3)" d="M-261,-214l61,474l-55,-458Z"/><path style="fill:rgb(142,0,142)" d="M-142,-309l-82,-13l73,22ZM-151,-300l-73,-22l-13,14Z"/><path style="fill:rgb(144,0,144)" d="M160,-291l77,-17l-13,-14ZM160,-291l64,-31l-73,22Z"/><path style="fill:rgb(143,0,143)" d="M-151,-300l-86,-8l77,17Z"/><path style="fill:rgb(21,0,21)" d="M-255,-198l63,475l-54,-459Z"/><path style="fill:rgb(143,0,143)" d="M-160,-291l-77,-17l-10,14Z"/><path style="fill:rgb(145,0,145)" d="M166,-281l81,-13l-10,-14ZM166,-281l71,-27l-77,17Z"/><path style="fill:rgb(144,0,144)" d="M-160,-291l-87,-3l81,13Z"/><path style="fill:rgb(145,0,145)" d="M-166,-281l-81,-13l-9,15Z"/><path style="fill:rgb(39,0,39)" d="M-246,-182l64,474l-52,-459Z"/><path style="fill:rgb(146,0,146)" d="M-166,-281l-90,2l85,8Z"/><path style="fill:rgb(56,0,56)" d="M-234,-167l64,474l-49,-459Z"/><path style="fill:rgb(146,0,146)" d="M-171,-271l-85,-8l-5,16Z"/><path style="fill:rgb(147,0,147)" d="M-171,-271l-90,8l87,3Z"/><path style="fill:rgb(72,0,72)" d="M-219,-152l63,473l-45,-459Z"/><path style="fill:rgb(147,0,147)" d="M-174,-260l-87,-3l-3,16Z"/><path style="fill:rgb(148,0,148)" d="M-174,-260l-90,13l88,-3Z"/><path style="fill:rgb(119,0,119)" d="M180,-125l-24,446l45,-459Z"/><path style="fill:rgb(88,0,88)" d="M-201,-138l61,472l-40,-459Z"/><path style="fill:rgb(149,0,149)" d="M-176,-250l-88,3v16ZM-176,-250l-88,19l89,-8Z"/><path style="fill:rgb(130,0,130)" d="M157,-114l-17,448l40,-459Z"/><path style="fill:rgb(103,0,103)" d="M-180,-125l58,470l-35,-459Z"/><path style="fill:rgb(139,0,139)" d="M132,-104l-10,449l35,-459Z"/><path style="fill:rgb(116,0,116)" d="M-157,-114l55,469l-30,-459Z"/><path style="fill:rgb(150,0,150)" d="M-175,-239l-89,8l3,17Z"/><path style="fill:rgb(151,0,151)" d="M-175,-239l-86,25l88,-14Z"/><path style="fill:rgb(146,0,146)" d="M105,-96l-3,451l30,-459Z"/><path style="fill:rgb(127,0,127)" d="M-132,-104l51,467l-24,-459Z"/><path style="fill:rgb(152,0,152)" d="M76,-90l5,453l24,-459Z"/><path style="fill:rgb(137,0,137)" d="M-105,-96l47,465l-18,-459Z"/><path style="fill:rgb(152,0,152)" d="M-173,-228l-82,30l87,-20ZM-173,-228l-88,14l6,16Z"/><path style="fill:rgb(155,0,155)" d="M46,-86l12,455l18,-459Z"/><path style="fill:rgb(145,0,145)" d="M-76,-90l41,463l-11,-459Z"/><path style="fill:rgb(156,0,156)" d="M15,-84l20,457l11,-459Z"/><path style="fill:rgb(151,0,151)" d="M-46,-86l34,461l-3,-459Z"/><path style="fill:rgb(154,0,154)" d="M-15,-84l27,459l3,-459Z"/><path style="fill:rgb(153,0,153)" d="M-168,-218l-78,36l85,-25ZM-168,-218l-87,20l9,16Z"/><path style="fill:rgb(154,0,154)" d="M-161,-207l-73,40l81,-30Z"/><path style="fill:rgb(155,0,155)" d="M-161,-207l-85,25l12,15Z"/><path style="fill:rgb(156,0,156)" d="M-153,-197l-66,45l76,-36ZM-153,-197l-81,30l15,15Z"/><path style="fill:rgb(157,0,157)" d="M-143,-188l-58,50l70,-41Z"/><path style="fill:rgb(159,0,159)" d="M117,-171l84,33l-70,-41Z"/><path style="fill:rgb(157,0,157)" d="M-143,-188l-76,36l18,14Z"/><path style="fill:rgb(158,0,158)" d="M-131,-179l-49,54l63,-46Z"/><path style="fill:rgb(160,0,160)" d="M102,-164l78,39l-63,-46Z"/><path style="fill:rgb(159,0,159)" d="M-117,-171l-40,57l55,-50ZM-131,-179l-70,41l21,13Z"/><path style="fill:rgb(161,0,161)" d="M85,-158l72,44l-55,-50ZM117,-171l63,46l21,-13Z"/><path style="fill:rgb(160,0,160)" d="M-102,-164l-30,60l47,-54Z"/><path style="fill:rgb(161,0,161)" d="M67,-153l65,49l-47,-54Z"/><path style="fill:rgb(160,0,160)" d="M-117,-171l-63,46l23,11Z"/><path style="fill:rgb(161,0,161)" d="M-85,-158l-20,62l38,-57Z"/><path style="fill:rgb(162,0,162)" d="M102,-164l55,50l23,-11ZM49,-149l56,53l-38,-57Z"/><path style="fill:rgb(161,0,161)" d="M-67,-153l-9,63l27,-59Z"/><path style="fill:rgb(162,0,162)" d="M29,-147l47,57l-27,-59Z"/><path style="fill:rgb(161,0,161)" d="M-102,-164l-55,50l25,10Z"/><path style="fill:rgb(162,0,162)" d="M-49,-149l3,63l17,-61ZM10,-145l36,59l-17,-61ZM85,-158l47,54l25,-10ZM-29,-147l14,63l5,-61ZM-10,-145l25,61l-5,-61ZM-85,-158l-47,54l27,8Z"/><path style="fill:rgb(163,0,163)" d="M67,-153l38,57l27,-8ZM-67,-153l-38,57l29,6Z"/><path style="fill:rgb(164,0,164)" d="M49,-149l27,59l29,-6Z"/><path style="fill:rgb(163,0,163)" d="M-49,-149l-27,59l30,4Z"/><path style="fill:rgb(164,0,164)" d="M29,-147l17,61l30,-4ZM-29,-147l-17,61l31,2ZM10,-145l5,61l31,-2ZM-10,-145l-5,61h30Z"/></svg>

<svg xmlns="http://www.w3.org/2000/svg" viewBox="-600 -400 1200 800" width="1200" height="800" style="background:rgb(255,255,255)"><path style="fill:rgb(169,0,169)" d="M-9,-351L-7,101L7,101z"/><path style="fill:rgb(168,0,168)" d="M9,-351L7,101L21,102zM-26,-350L-21,102L-7,101z"/><path style="fill:rgb(165,0,165)" d="M26,-350L21,102L34,104z"/><path style="fill:rgb(166,0,166)" d="M-42,-348L-34,104L-21,102z"/><path style="fill:rgb(161,0,161)" d="M42,-348L34,104L47,107z"/><path style="fill:rgb(162,0,162)" d="M-59,-345L-47,107L-34,104z"/><path style="fill:rgb(155,0,155)" d="M59,-345L47,107L60,111z"/><path style="fill:rgb(157,0,157)" d="M-75,-341L-60,111L-47,107z"/><path style="fill:rgb(148,0,148)" d="M75,-341L60,111L72,116z"/><path style="fill:rgb(150,0,150)" d="M-90,-336L-72,116L-60,111z"/><path style="fill:rgb(140,0,140)" d="M90,-336L72,116L83,122z"/><path style="fill:rgb(142,0,142)" d="M-105,-330L-83,122L-72,116z"/><path style="fill:rgb(130,0,130)" d="M105,-330L83,122L94,129z"/><path style="fill:rgb(133,0,133)" d="M-118,-324L-94,129L-83,122z"/><path style="fill:rgb(119,0,119)" d="M118,-324L94,129L104,137z"/><path style="fill:rgb(122,0,122)" d="M-130,-317L-104,137L-94,129z"/><path style="fill:rgb(106,0,106)" d="M130,-317L104,137L113,145z"/><path style="fill:rgb(110,0,110)" d="M-142,-309L-113,145L-104,137z"/><path style="fill:rgb(93,0,93)" d="M142,-309L113,145L120,154z"/><path style="fill:rgb(97,0,97)" d="M-151,-300L-120,154L-113,145z"/><path style="fill:rgb(79,0,79)" d="M151,-300L120,154L127,164z"/><path style="fill:rgb(83,0,83)" d="M-160,-291L-127,164L-120,154z"/><path style="fill:rgb(154,0,154)" d="M132,174L196,161L247,-294z"/><path style="fill:rgb(64,0,64)" d="M160,-291L127,164L132,174z"/><path style="fill:rgb(68,0,68)" d="M-166,-281L-132,174L-127,164z"/><path style="fill:rgb(53,0,53)" d="M-171,-271L-136,185L-132,174z"/><path style="fill:rgb(37,0,37)" d="M-174,-260L-138,196L-136,185z"/><path style="fill:rgb(20,0,20)" d="M-176,-250L-139,207L-138,196z"/><path style="fill:rgb(4,0,4)" d="M-175,-239L-138,218L-139,207z"/><path style="fill:rgb(181,0,181)" d="M-9,-351L7,101L9,-351z"/><path style="fill:rgb(180,0,180)" d="M-26,-350L-7,101L-9,-351zM9,-351L21,102L26,-350z"/><path style="fill:rgb(178,0,178)" d="M-42,-348L-21,102L-26,-350z"/><path style="fill:rgb(177,0,177)" d="M26,-350L34,104L42,-348z"/><path style="fill:rgb(174,0,174)" d="M-59,-345L-34,104L-42,-348z"/><path style="fill:rgb(0,0,0)" d="M-264,-231L-208,227L-205,244z"/><path style="fill:rgb(173,0,173)" d="M42,-348L47,107L59,-345z"/><path style="fill:rgb(168,0,168)" d="M-75,-341L-47,107L-59,-345z"/><path style="fill:rgb(167,0,167)" d="M59,-345L60,111L75,-341z"/><path style="fill:rgb(161,0,161)" d="M-90,-336L-60,111L-75,-341z"/><path style="fill:rgb(159,0,159)" d="M75,-341L72,116L90,-336z"/><path style="fill:rgb(152,0,152)" d="M-105,-330L-72,116L-90,-336z"/><path style="fill:rgb(150,0,150)" d="M90,-336L83,122L105,-330z"/><path style="fill:rgb(3,0,3)" d="M-261,-214L-205,244L-200,260z"/><path style="fill:rgb(142,0,142)" d="M-118,-324L-83,122L-105,-330z"/><path style="fill:rgb(139,0,139)" d="M105,-330L94,129L118,-324z"/><path style="fill:rgb(131,0,131)" d="M-130,-317L-94,129L-118,-324z"/><path style="fill:rgb(128,0,128)" d="M118,-324L104,137L130,-317z"/><path style="fill:rgb(19,0,19)" d="M-255,-198L-200,260L-192,277z"/><path style="fill:rgb(118,0,118)" d="M-142,-309L-104,137L-130,-317z"/><path style="fill:rgb(114,0,114)" d="M130,-317L113,145L142,-309z"/><path style="fill:rgb(104,0,104)" d="M-151,-300L-113,145L-142,-309z"/><path style="fill:rgb(35,0,35)" d="M-246,-182L-192,277L-182,292z"/><path style="fill:rgb(100,0,100)" d="M142,-309L120,154L151,-300z"/><path style="fill:rgb(89,0,89)" d="M-160,-291L-120,154L-151,-300z"/><path style="fill:rgb(85,0,85)" d="M151,-300L127,164L160,-291z"/><path style="fill:rgb(51,0,51)" d="M-234,-167L-182,292L-170,307z"/><path style="fill:rgb(73,0,73)" d="M-166,-281L-127,164L-160,-291z"/><path style="fill:rgb(166,0,166)" d="M132,174L247,-294L166,-281z"/><path style="fill:rgb(69,0,69)" d="M160,-291L132,174L166,-281z"/><path style="fill:rgb(136,0,136)" d="M9,-351L12,-394L-12,-394zM-9,-351L-12,-394L-37,-392z"/><path style="fill:rgb(66,0,66)" d="M-219,-152L-170,307L-156,321z"/><path style="fill:rgb(136,0,136)" d="M26,-350L37,-392L12,-394zM-26,-350L-37,-392L-62,-390z"/><path style="fill:rgb(137,0,137)" d="M42,-348L62,-390L37,-392z"/><path style="fill:rgb(57,0,57)" d="M-171,-271L-132,174L-166,-281z"/><path style="fill:rgb(137,0,137)" d="M-42,-348L-62,-390L-86,-385zM59,-345L86,-385L62,-390zM-59,-345L-86,-385L-109,-380z"/><path style="fill:rgb(138,0,138)" d="M75,-341L109,-380L86,-385z"/><path style="fill:rgb(81,0,81)" d="M-201,-138L-156,321L-140,334z"/><path style="fill:rgb(40,0,40)" d="M-174,-260L-136,185L-171,-271z"/><path style="fill:rgb(138,0,138)" d="M9,-351L-12,-394L-9,-351z"/><path style="fill:rgb(137,0,137)" d="M-75,-341L-109,-380L-132,-373z"/><path style="fill:rgb(138,0,138)" d="M26,-350L12,-394L9,-351z"/><path style="fill:rgb(109,0,109)" d="M180,-125L140,334L156,321z"/><path style="fill:rgb(138,0,138)" d="M-9,-351L-37,-392L-26,-350zM42,-348L37,-392L26,-350zM90,-336L132,-373L109,-380zM-26,-350L-62,-390L-42,-348zM59,-345L62,-390L42,-348z"/><path style="fill:rgb(94,0,94)" d="M-180,-125L-140,334L-122,345z"/><path style="fill:rgb(138,0,138)" d="M-42,-348L-86,-385L-59,-345zM-90,-336L-132,-373L-153,-365z"/><path style="fill:rgb(22,0,22)" d="M-176,-250L-138,196L-174,-260z"/><path style="fill:rgb(139,0,139)" d="M75,-341L86,-385L59,-345zM105,-330L153,-365L132,-373z"/><path style="fill:rgb(119,0,119)" d="M157,-114L122,345L140,334z"/><path style="fill:rgb(138,0,138)" d="M-59,-345L-109,-380L-75,-341z"/><path style="fill:rgb(139,0,139)" d="M90,-336L109,-380L75,-341z"/><path style="fill:rgb(106,0,106)" d="M-157,-114L-122,345L-102,355z"/><path style="fill:rgb(139,0,139)" d="M-105,-330L-153,-365L-173,-356zM-75,-341L-132,-373L-90,-336z"/><path style="fill:rgb(140,0,140)" d="M118,-324L173,-356L153,-365z"/><path style="fill:rgb(127,0,127)" d="M132,-104L102,355L122,345z"/><path style="fill:rgb(4,0,4)" d="M-175,-239L-139,207L-176,-250z"/><path style="fill:rgb(140,0,140)" d="M105,-330L132,-373L90,-336z"/><path style="fill:rgb(116,0,116)" d="M-132,-104L-102,355L-81,363z"/><path style="fill:rgb(139,0,139)" d="M-90,-336L-153,-365L-105,-330z"/><path style="fill:rgb(134,0,134)" d="M105,-96L81,363L102,355z"/><path style="fill:rgb(139,0,139)" d="M-118,-324L-173,-356L-192,-346z"/><path style="fill:rgb(141,0,141)" d="M118,-324L153,-365L105,-330zM130,-317L192,-346L173,-356z"/><path style="fill:rgb(125,0,125)" d="M-105,-96L-81,363L-58,369z"/><path style="fill:rgb(139,0,139)" d="M76,-90L58,369L81,363z"/><path style="fill:rgb(140,0,140)" d="M-105,-330L-173,-356L-118,-324z"/><path style="fill:rgb(132,0,132)" d="M-76,-90L-58,369L-35,373z"/><path style="fill:rgb(141,0,141)" d="M46,-86L35,373L58,369z"/><path style="fill:rgb(138,0,138)" d="M-46,-86L-35,373L-12,375z"/><path style="fill:rgb(141,0,141)" d="M130,-317L173,-356L118,-324z"/><path style="fill:rgb(140,0,140)" d="M-130,-317L-192,-346L-209,-334z"/><path style="fill:rgb(142,0,142)" d="M15,-84L12,375L35,373z"/><path style="fill:rgb(141,0,141)" d="M-15,-84L-12,375L12,375z"/><path style="fill:rgb(142,0,142)" d="M142,-309L209,-334L192,-346z"/><path style="fill:rgb(141,0,141)" d="M-118,-324L-192,-346L-130,-317z"/><path style="fill:rgb(0,0,0)" d="M-264,-231L-205,244L-261,-214z"/><path style="fill:rgb(142,0,142)" d="M142,-309L192,-346L130,-317z"/><path style="fill:rgb(141,0,141)" d="M-142,-309L-209,-334L-224,-322z"/><path style="fill:rgb(142,0,142)" d="M-130,-317L-209,-334L-142,-309z"/><path style="fill:rgb(143,0,143)" d="M151,-300L224,-322L209,-334zM151,-300L209,-334L142,-309z"/><path style="fill:rgb(3,0,3)" d="M-261,-214L-200,260L-255,-198z"/><path style="fill:rgb(142,0,142)" d="M-142,-309L-224,-322L-151,-300zM-151,-300L-224,-322L-237,-308z"/><path style="fill:rgb(144,0,144)" d="M160,-291L237,-308L224,-322zM160,-291L224,-322L151,-300z"/><path style="fill:rgb(143,0,143)" d="M-151,-300L-237,-308L-160,-291z"/><path style="fill:rgb(21,0,21)" d="M-255,-198L-192,277L-246,-182z"/><path style="fill:rgb(143,0,143)" d="M-160,-291L-237,-308L-247,-294z"/><path style="fill:rgb(145,0,145)" d="M166,-281L247,-294L237,-308zM166,-281L237,-308L160,-291z"/><path style="fill:rgb(144,0,144)" d="M-160,-291L-247,-294L-166,-281z"/><path style="fill:rgb(145,0,145)" d="M-166,-281L-247,-294L-256,-279z"/><path style="fill:rgb(39,0,39)" d="M-246,-182L-182,292L-234,-167z"/><path style="fill:rgb(146,0,146)" d="M-166,-281L-256,-279L-171,-271z"/><path style="fill:rgb(56,0,56)" d="M-234,-167L-170,307L-219,-152z"/><path style="fill:rgb(146,0,146)" d="M-171,-271L-256,-279L-261,-263z"/><path style="fill:rgb(147,0,147)" d="M-171,-271L-261,-263L-174,-260z"/><path style="fill:rgb(72,0,72)" d="M-219,-152L-156,321L-201,-138z"/><path style="fill:rgb(147,0,147)" d="M-174,-260L-261,-263L-264,-247z"/><path style="fill:rgb(148,0,148)" d="M-174,-260L-264,-247L-176,-250z"/><path style="fill:rgb(119,0,119)" d="M180,-125L156,321L201,-138z"/><path style="fill:rgb(88,0,88)" d="M-201,-138L-140,334L-180,-125z"/><path style="fill:rgb(149,0,149)" d="M-176,-250L-264,-247L-264,-231zM-176,-250L-264,-231L-175,-239z"/><path style="fill:rgb(130,0,130)" d="M157,-114L140,334L180,-125z"/><path style="fill:rgb(103,0,103)" d="M-180,-125L-122,345L-157,-114z"/><path style="fill:rgb(139,0,139)" d="M132,-104L122,345L157,-114z"/><path style="fill:rgb(116,0,116)" d="M-157,-114L-102,355L-132,-104z"/><path style="fill:rgb(150,0,150)" d="M-175,-239L-264,-231L-261,-214z"/><path style="fill:rgb(151,0,151)" d="M-175,-239L-261,-214L-173,-228z"/><path style="fill:rgb(146,0,146)" d="M105,-96L102,355L132,-104z"/><path style="fill:rgb(127,0,127)" d="M-132,-104L-81,363L-105,-96z"/><path style="fill:rgb(152,0,152)" d="M76,-90L81,363L105,-96z"/><path style="fill:rgb(137,0,137)" d="M-105,-96L-58,369L-76,-90z"/><path style="fill:rgb(152,0,152)" d="M-173,-228L-255,-198L-168,-218zM-173,-228L-261,-214L-255,-198z"/><path style="fill:rgb(155,0,155)" d="M46,-86L58,369L76,-90z"/><path style="fill:rgb(145,0,145)" d="M-76,-90L-35,373L-46,-86z"/><path style="fill:rgb(156,0,156)" d="M15,-84L35,373L46,-86z"/><path style="fill:rgb(151,0,151)" d="M-46,-86L-12,375L-15,-84z"/><path style="fill:rgb(154,0,154)" d="M-15,-84L12,375L15,-84z"/><path style="fill:rgb(153,0,153)" d="M-168,-218L-246,-182L-161,-207zM-168,-218L-255,-198L-246,-182z"/><path style="fill:rgb(154,0,154)" d="M-161,-207L-234,-167L-153,-197z"/><path style="fill:rgb(155,0,155)" d="M-161,-207L-246,-182L-234,-167z"/><path style="fill:rgb(156,0,156)" d="M-153,-197L-219,-152L-143,-188zM-153,-197L-234,-167L-219,-152z"/><path style="fill:rgb(157,0,157)" d="M-143,-188L-201,-138L-131,-179z"/><path style="fill:rgb(159,0,159)" d="M117,-171L201,-138L131,-179z"/><path style="fill:rgb(157,0,157)" d="M-143,-188L-219,-152L-201,-138z"/><path style="fill:rgb(158,0,158)" d="M-131,-179L-180,-125L-117,-171z"/><path style="fill:rgb(160,0,160)" d="M102,-164L180,-125L117,-171z"/><path style="fill:rgb(159,0,159)" d="M-117,-171L-157,-114L-102,-164zM-131,-179L-201,-138L-180,-125z"/><path style="fill:rgb(161,0,161)" d="M85,-158L157,-114L102,-164zM117,-171L180,-125L201,-138z"/><path style="fill:rgb(160,0,160)" d="M-102,-164L-132,-104L-85,-158z"/><path style="fill:rgb(161,0,161)" d="M67,-153L132,-104L85,-158z"/><path style="fill:rgb(160,0,160)" d="M-117,-171L-180,-125L-157,-114z"/><path style="fill:rgb(161,0,161)" d="M-85,-158L-105,-96L-67,-153z"/><path style="fill:rgb(162,0,162)" d="M102,-164L157,-114L180,-125zM49,-149L105,-96L67,-153z"/><path style="fill:rgb(161,0,161)" d="M-67,-153L-76,-90L-49,-149z"/><path style="fill:rgb(162,0,162)" d="M29,-147L76,-90L49,-149z"/><path style="fill:rgb(161,0,161)" d="M-102,-164L-157,-114L-132,-104z"/><path style="fill:rgb(162,0,162)" d="M-49,-149L-46,-86L-29,-147zM10,-145L46,-86L29,-147zM85,-158L132,-104L157,-114zM-29,-147L-15,-84L-10,-145zM-10,-145L15,-84L10,-145zM-85,-158L-132,-104L-105,-96z"/><path style="fill:rgb(163,0,163)" d="M67,-153L105,-96L132,-104zM-67,-153L-105,-96L-76,-90z"/><path style="fill:rgb(164,0,164)" d="M49,-149L76,-90L105,-96z"/><path style="fill:rgb(163,0,163)" d="M-49,-149L-76,-90L-46,-86z"/><path style="fill:rgb(164,0,164)" d="M29,-147L46,-86L76,-90zM-29,-147L-46,-86L-15,-84zM10,-145L15,-84L46,-86zM-10,-145L-15,-84L15,-84z"/></svg>
